!!!COM: Haydn, Franz Joseph
!!!OPR: Symphony in C Minor
!!!OTL: Affettuoso 
!!!OMV: 3
!!!SCT: H I:95
!!!SCA: Thematisch-bibliographisches Werkevererzeichnis (A. van Hoboken)
!!!YOR: Dover Edition
!!!EED: Frances Bennion
!!!ENC: Frances Bennion
!!!CDT: 1732/3/31/-1809/5/31/
!!!OCY: Österreich
!!!YEC: Copyright (c) 1994, 2000 Center for Computer Assisted Research in the Humanities
!!!YEM: Rights to all derivative editions reserved.
!!!YEM: Refer to licensing agreement for further details.
!!!YEN: United States of America
**kern	**kern	**kern	**kern	**kern	**kern	**kern	**kern	**kern	**kern	**kern	**kern	**kern	**kern	**kern
*k[b-e-a-]	*k[]	*k[b-e-a-]	*k[b-e-a-]	*k[b-e-a-]	*k[b-e-a-]	*k[b-e-a-]	*k[b-e-a-]	*k[b-e-a-]	*k[b-e-a-]	*k[b-e-a-]	*k[]	*k[]	*k[]	*k[]
*c:	*c:	*c:	*c:	*c:	*c:	*c:	*c:	*c:	*c:	*c:	*c:	*c:	*c:	*c:
*clefF	*clefF4	*clefF	*clefF	*clefC3	*clefF4	*clefF4	*clefF	*clefF	*clefF4	*clefF4	*clefF	*clefF	*clefF	*clefF
*M3/4	*M3/4	*M3/4	*M3/4	*M3/4	*M3/4	*M3/4	*M3/4	*M3/4	*M3/4	*M3/4	*M3/4	*M3/4	*M3/4	*M3/4
*tb8	*tb8	*tb8	*tb8	*tb8	*tb8	*tb8	*tb8	*tb8	*tb8	*tb8	*tb8	*tb8	*tb8	*tb8
=0-	=0-	=0-	=0-	=0-	=0-	=0-	=0-	=0-	=0-	=0-	=0-	=0-	=0-	=0-
2r	2r	2r	2r	2r	2r	2r	2r	2r	2r	2r	2r	2r	2r	2r
4r	4r	4g	4r	4r	4r	4r	4r	4r	4r	4r	4r	4r	4r	4r
=1	=1	=1	=1	=1	=1	=1	=1	=1	=1	=1	=1	=1	=1	=1
2.r	2.r	4g	4r	4r	4r	4r	2.r	2.r	2.r	2.r	2.r	2.r	2.r	2.r
.	.	4r	4e-	4c	4c	4c	.	.	.	.	.	.	.	.
.	.	4cc	4e-	4c	4c	4c	.	.	.	.	.	.	.	.
=2	=2	=2	=2	=2	=2	=2	=2	=2	=2	=2	=2	=2	=2	=2
2.r	2.r	4cc	4r	4r	4r	4r	2.r	2.r	2.r	2.r	2.r	2.r	2.r	2.r
.	.	4r	4e-	4g	4c	4c	.	.	.	.	.	.	.	.
.	.	4ee-	4e-	4g	4c	4c	.	.	.	.	.	.	.	.
=3	=3	=3	=3	=3	=3	=3	=3	=3	=3	=3	=3	=3	=3	=3
2.r	2.r	4dd	4f	2.g	4c	4c	2.r	2.r	2.r	2.r	2.r	2.r	2.r	2.r
.	.	8dd	4f	.	4c	4c	.	.	.	.	.	.	.	.
.	.	8cc	.	.	.	.	.	.	.	.	.	.	.	.
.	.	8dd	4f	.	4c	4c	.	.	.	.	.	.	.	.
.	.	8b	.	.	.	.	.	.	.	.	.	.	.	.
=4	=4	=4	=4	=4	=4	=4	=4	=4	=4	=4	=4	=4	=4	=4
2r	2.r	4cc	4e-	4g	4c	4c	2.r	2.r	2.r	2.r	2.r	2.r	2.r	2.r
.	.	4r	4e-	4g	4c	4c	.	.	.	.	.	.	.	.
4gg	.	4gg	4g	4r	4r	4r	.	.	.	.	.	.	.	.
=5	=5	=5	=5	=5	=5	=5	=5	=5	=5	=5	=5	=5	=5	=5
4ccc	4C	4ccc	4cc	2.g	4E-	4E-	2.gg	2.cc	2.E-	2.E-	4cc	4cc	4cc	4c
8ccc	4C	8ccc	8cc	.	4E-	4E-	.	.	.	.	4cc	4cc	4cc	4c
8bb	.	8bb	8b	.	.	.	.	.	.	.	.	.	.	.
4ccc	4C	4ccc	4cc	.	4E-	4E-	.	.	.	.	4cc	4cc	4cc	4c
=6	=6	=6	=6	=6	=6	=6	=6	=6	=6	=6	=6	=6	=6	=6
4aa-	4C	4aa-	4a-	2c	2.F	2.F	4aa-	2.cc	2.F	2.F	2.dd	2.dd	2.cc	2.c
4ff	2r	4ff	4f	.	.	.	4ff	.	.	.	.	.	.	.
4dd	.	4dd	4d	8f	.	.	4dd	.	.	.	.	.	.	.
.	.	.	.	8e-	.	.	.	.	.	.	.	.	.	.
=7	=7	=7	=7	=7	=7	=7	=7	=7	=7	=7	=7	=7	=7	=7
4b	4GG	4b	4B	4d	4G	4G	4b	2.b	2.d	2.B	4ee	4ee	4g	4g
8gg	4GG	8gg	8g	4B	4G	4G	8gg	.	.	.	4ee	4ee	4dd	4g
8aa-	.	8aa-	8a-	.	.	.	8aa-	.	.	.	.	.	.	.
8gg	4GG	8gg	8g	4B	4G	4G	8gg	.	.	.	4ee	4ee	4dd	4g
8ff	.	8ff	8f	.	.	.	8ff	.	.	.	.	.	.	.
=8	=8	=8	=8	=8	=8	=8	=8	=8	=8	=8	=8	=8	=8	=8
4ee-	4C	4ee-	4e-	4c	4c	4c	4ee-	4cc	4e-	4c	4cc	4cc	4cc	4c
4cc	2r	4cc	4c	4e-	2r	2r	4cc	2r	2r	2r	2r	2r	2r	2r
4r	.	4g	4r	4r	.	.	4r	.	.	.	.	.	.	.
=9	=9	=9	=9	=9	=9	=9	=9	=9	=9	=9	=9	=9	=9	=9
2.r	2.r	4g	4r	4r	4r	4r	2.r	2.r	4r	4r	4r	4r	2.r	2.r
.	.	4r	4e-	4c	4c	4c	.	.	4c	4c	4ee	4cc	.	.
.	.	4cc	4e-	4c	4c	4c	.	.	4c	4c	4ee	4cc	.	.
=10	=10	=10	=10	=10	=10	=10	=10	=10	=10	=10	=10	=10	=10	=10
2.r	2.r	4cc	4r	4r	4r	4r	2.r	2.r	4r	4r	4r	4r	2.r	2.r
.	.	4r	4e-	4g	4c	4c	.	.	4c	4c	4cc	4cc	.	.
.	.	4ee-	4g	4e-	4c	4c	.	.	4c	4c	4cc	4cc	.	.
=11	=11	=11	=11	=11	=11	=11	=11	=11	=11	=11	=11	=11	=11	=11
2.r	2.r	4dd	2.a-	2.f	2.B-	2.B-	2.r	2.r	2.B-	2.B-	2.dd	2.g	2.r	2.r
.	.	8dd	.	.	.	.	.	.	.	.	.	.	.	.
.	.	8cc	.	.	.	.	.	.	.	.	.	.	.	.
.	.	8dd	.	.	.	.	.	.	.	.	.	.	.	.
.	.	8b-	.	.	.	.	.	.	.	.	.	.	.	.
=12	=12	=12	=12	=12	=12	=12	=12	=12	=12	=12	=12	=12	=12	=12
2r	2.r	4ee-	4g	4e-	4B-	4B-	2r	2r	4B-	4B-	2.ee	2.cc	2.r	2.r
.	.	4r	4g	4e-	4B-	4B-	.	.	4B-	4B-	.	.	.	.
4ee-	.	4ee-	4g	4e-	4B-	4B-	4ee-	4g	4BB-	4BB-	.	.	.	.
=13	=13	=13	=13	=13	=13	=13	=13	=13	=13	=13	=13	=13	=13	=13
4dd	2.r	4dd	2a-	2f	2B-	2B-	4dd	2.a-	2B-	2B-	2.dd	2.g	2.r	2.r
8dd	.	8dd	.	.	.	.	8dd	.	.	.	.	.	.	.
8cc	.	8cc	.	.	.	.	8cc	.	.	.	.	.	.	.
8dd	.	8dd	4f	4a-	4A-	4A-	8dd	.	4A-	4A-	.	.	.	.
8b-	.	8b-	.	.	.	.	8b-	.	.	.	.	.	.	.
=14	=14	=14	=14	=14	=14	=14	=14	=14	=14	=14	=14	=14	=14	=14
4ee-	2.r	4ee-	2b-	2g	2G	2G	4ee-	4g	2G	2G	2.ee	2.cc	2.r	2.r
4gg	.	4gg	.	.	.	.	4gg	4b-	.	.	.	.	.	.
4bb-	.	4bb-	4g	4e-	4E-	4E-	4bb-	4ee-	4E-	4E-	.	.	.	.
=15	=15	=15	=15	=15	=15	=15	=15	=15	=15	=15	=15	=15	=15	=15
4aa-	2.r	4aa-	2.f 2.B-	2.B-	4D	4D	4aa-	[2.b-	4D	4D	2.dd	2.g	2.r	2.r
8aa-	.	8aa-	.	.	4D	4D	8aa-	.	4D	4D	.	.	.	.
8gg	.	8gg	.	.	.	.	8gg	.	.	.	.	.	.	.
8aa-	.	8aa-	.	.	4D	4D	8aa-	.	4D	4D	.	.	.	.
8ff	.	8ff	.	.	.	.	8ff	.	.	.	.	.	.	.
=16	=16	=16	=16	=16	=16	=16	=16	=16	=16	=16	=16	=16	=16	=16
8gg	2.r	8gg	4g	4E-	4E-	4E-	4gg	4b-]	4E-	4E-	4ee	4cc	2.r	2.r
8bb-	.	8ff	.	.	.	.	.	.	.	.	.	.	.	.
8eee-	.	8ee-	4a-	4F	4F	4F	2r	2r	4F	4F	2r	2r	.	.
8ddd	.	8dd	.	.	.	.	.	.	.	.	.	.	.	.
8ccc	.	8cc	4b-	4G	4G	4G	.	.	4G	4G	.	.	.	.
8bb-	.	8b-	.	.	.	.	.	.	.	.	.	.	.	.
=17	=17	=17	=17	=17	=17	=17	=17	=17	=17	=17	=17	=17	=17	=17
8aa-	2.r	8a-	4cc	2A-	2A-	2A-	2.r	2.r	2A-	2A-	2.r	2.r	2.r	2.r
8gg	.	8g	.	.	.	.	.	.	.	.	.	.	.	.
8ff	.	8f	4r	.	.	.	.	.	.	.	.	.	.	.
8ee-	.	8e-	.	.	.	.	.	.	.	.	.	.	.	.
8dd	.	8d	4d 4A-	4B-	4B-	4B-	.	.	4B-	4B-	.	.	.	.
8bb-	.	8b-	.	.	.	.	.	.	.	.	.	.	.	.
=18	=18	=18	=18	=18	=18	=18	=18	=18	=18	=18	=18	=18	=18	=18
2.gg	2.r	2e-	2G 2e-	8E-	4E-	4E-	4r	2.b-	2.e-	2.e-	2.ee	2.cc	2.r	2.r
.	.	.	.	8e-	.	.	.	.	.	.	.	.	.	.
.	.	.	.	8E-	4E-	4E-	4bb-	.	.	.	.	.	.	.
.	.	.	.	8e-	.	.	.	.	.	.	.	.	.	.
.	.	4bb-	4g	8E-	4E-	4E-	4bb-	.	.	.	.	.	.	.
.	.	.	.	8e-	.	.	.	.	.	.	.	.	.	.
=19	=19	=19	=19	=19	=19	=19	=19	=19	=19	=19	=19	=19	=19	=19
2.aa-	2.r	2d 2A-	2A- 2f	8E-	4E-	4E-	4r	2.dd	2.f	2.f	2.dd	2.g	2.r	2.r
.	.	.	.	8e-	.	.	.	.	.	.	.	.	.	.
.	.	.	.	8E-	4E-	4E-	4bb-	.	.	.	.	.	.	.
.	.	.	.	8e-	.	.	.	.	.	.	.	.	.	.
.	.	4bb-	4d	8E-	4E-	4E-	4bb-	.	.	.	.	.	.	.
.	.	.	.	8e-	.	.	.	.	.	.	.	.	.	.
=20	=20	=20	=20	=20	=20	=20	=20	=20	=20	=20	=20	=20	=20	=20
2.gg	2.r	2G 2e-	2G 2e-	8E-	4E-	4E-	4r	2.ee-	2.e-	2.e-	2.ee	2.cc	2.r	2.r
.	.	.	.	8e-	.	.	.	.	.	.	.	.	.	.
.	.	.	.	8E-	4E-	4E-	4bb-	.	.	.	.	.	.	.
.	.	.	.	8e-	.	.	.	.	.	.	.	.	.	.
.	.	4bb-	4g	8E-	4E-	4E-	4bb-	.	.	.	.	.	.	.
.	.	.	.	8e-	.	.	.	.	.	.	.	.	.	.
=21	=21	=21	=21	=21	=21	=21	=21	=21	=21	=21	=21	=21	=21	=21
2.ddd	2.r	4d 4A-	2A- 2f	8E-	4E-	4E-	4r	2.a-	2.f	2.f	2.dd	2.g	2.r	2.r
.	.	.	.	8e-	.	.	.	.	.	.	.	.	.	.
.	.	4d 4A-	.	8E-	4E-	4E-	4bb-	.	.	.	.	.	.	.
.	.	.	.	8e-	.	.	.	.	.	.	.	.	.	.
.	.	4bb-	4A- 4d	8E-	4E-	4E-	4bb-	.	.	.	.	.	.	.
.	.	.	.	8e-	.	.	.	.	.	.	.	.	.	.
=22	=22	=22	=22	=22	=22	=22	=22	=22	=22	=22	=22	=22	=22	=22
4eee-	2r	4e- 4G	4e- 4G	4E-	4E-	4E-	4gg	4g	4e-	4e-	4cc	4e	2r	2r
4r	.	4r	4r	4r	4r	4r	4r	4r	4r	4r	4r	4r	.	.
4r	4r	4ee-	4r	4r	4r	4r	4r	4r	4r	4r	4r	4r	4r	4r
=23	=23	=23	=23	=23	=23	=23	=23	=23	=23	=23	=23	=23	=23	=23
2.r	2.r	2e-	4r	2.G	2.G	2.G	2.r	2.r	2.r	2.r	2.r	2.r	2.r	2.r
.	.	.	4B-	.	.	.	.	.	.	.	.	.	.	.
.	.	4e	4d-	.	.	.	.	.	.	.	.	.	.	.
=24	=24	=24	=24	=24	=24	=24	=24	=24	=24	=24	=24	=24	=24	=24
2.r	2.r	4g	4c	4A-	4A-	4A-	2.r	2.r	2.r	2.r	2.r	2.r	2.r	2.r
.	.	4f	2r	2r	2r	2r	.	.	.	.	.	.	.	.
.	.	4ff	.	.	.	.	.	.	.	.	.	.	.	.
=25	=25	=25	=25	=25	=25	=25	=25	=25	=25	=25	=25	=25	=25	=25
2.r	2.r	2f	4r	2.A	2.A	2.A	2.r	2.r	2.r	2.r	2.r	2.r	2.r	2.r
.	.	.	4c	.	.	.	.	.	.	.	.	.	.	.
.	.	4f#	4e-	.	.	.	.	.	.	.	.	.	.	.
=26	=26	=26	=26	=26	=26	=26	=26	=26	=26	=26	=26	=26	=26	=26
2.r	2.r	4a	4d	4B	4B	4B	2r	2r	2r	2r	2.r	2.r	2.r	2.r
.	.	4g	2r	4r	4r	4r	.	.	.	.	.	.	.	.
.	.	4r	.	4g	4G	4G	4gg	4gg	4G	4G	.	.	.	.
=27	=27	=27	=27	=27	=27	=27	=27	=27	=27	=27	=27	=27	=27	=27
4r	4GG	4r	4r	2G	2GG	2GG	2g	2g	2GG	2GG	2ee	2e	2gg	2g
4gg	2r	4gg	4ee-	.	.	.	.	.	.	.	.	.	.	.
4ff	.	4ff	4dd	4g	4G	4G	4gg	4gg	4G	4G	4r	4r	4r	4r
=28	=28	=28	=28	=28	=28	=28	=28	=28	=28	=28	=28	=28	=28	=28
4r	4GG	4r	4r	2G	2GG	2GG	2g	2g	2GG	2GG	2ee	2e	2gg	2g
4ee-	2r	4ee-	4cc	.	.	.	.	.	.	.	.	.	.	.
4dd	.	4dd	4b	4g	4G	4G	4gg	4gg	4G	4G	4r	4r	4r	4r
=29	=29	=29	=29	=29	=29	=29	=29	=29	=29	=29	=29	=29	=29	=29
4cc	4C	4r	4r	2A-	2.AA-	2.AA-	2ccc	2ff#	2.AA-	2.AA-	2.cc	2.c	2.cc	2.c
4eee-	4C	4cc	4c	.	.	.	.	.	.	.	.	.	.	.
4ccc	4C	4f#	4e-	4c	.	.	4ff#	4cc	.	.	.	.	.	.
=30	=30	=30	=30	=30	=30	=30	=30	=30	=30	=30	=30	=30	=30	=30
4gg	4GG	4g	4e-	4c	4GG	4GG	4gg	4b	4GG	4GG	4ee	4e	4g	4g
2r	2r	4r	4d	4B	4G	4G	2r	2r	4G	4G	2r	2r	2r	2r
.	.	4g	4r	4r	4r	4r	.	.	4r	4r	.	.	.	.
=31	=31	=31	=31	=31	=31	=31	=31	=31	=31	=31	=31	=31	=31	=31
2.r	2.r	4g	4r	4r	4r	4r	2.r	2.r	2.r	2.r	2.r	2.r	2.r	2.r
.	.	4r	4e-	4c	4c	4c	.	.	.	.	.	.	.	.
.	.	4cc	4e-	4c	4c	4c	.	.	.	.	.	.	.	.
=32	=32	=32	=32	=32	=32	=32	=32	=32	=32	=32	=32	=32	=32	=32
2.r	2.r	4cc	4r	4r	4r	4r	2.r	2.r	2.r	2.r	2.r	2.r	2.r	2.r
.	.	4r	4e-	4g	4c	4c	.	.	.	.	.	.	.	.
.	.	4ee-	4e-	4g	4c	4c	.	.	.	.	.	.	.	.
=33	=33	=33	=33	=33	=33	=33	=33	=33	=33	=33	=33	=33	=33	=33
2.r	2.r	4dd	4r	2.g	4c	4c	2.r	2.r	2.r	2.r	2.r	2.r	2.r	2.r
.	.	8dd	4f	.	4c	4c	.	.	.	.	.	.	.	.
.	.	8cc	.	.	.	.	.	.	.	.	.	.	.	.
.	.	8dd	4f	.	4c	4c	.	.	.	.	.	.	.	.
.	.	8b	.	.	.	.	.	.	.	.	.	.	.	.
=34	=34	=34	=34	=34	=34	=34	=34	=34	=34	=34	=34	=34	=34	=34
2r	2.r	4cc	4e-	4g	4c	4c	2.r	2.r	2.r	2.r	2.r	2.r	2.r	2.r
.	.	4r	4e-	4g	4c	4c	.	.	.	.	.	.	.	.
4gg	.	4gg	4g	4r	4r	4r	.	.	.	.	.	.	.	.
=35	=35	=35	=35	=35	=35	=35	=35	=35	=35	=35	=35	=35	=35	=35
4ccc	4C	4ccc	4cc	2.g	4E-	4E-	2.gg	2.cc	2.E-	2.E-	4cc	4cc	4cc	4c
8ccc	4C	8ccc	8cc	.	4E-	4E-	.	.	.	.	4cc	4cc	4cc	4c
8bb	.	8bb	8b	.	.	.	.	.	.	.	.	.	.	.
4ccc	4C	4ccc	4cc	.	4E-	4E-	.	.	.	.	4cc	4cc	4cc	4c
=36	=36	=36	=36	=36	=36	=36	=36	=36	=36	=36	=36	=36	=36	=36
4aa-	4C	4aa-	4a-	2c	2.F	2.F	4aa-	2.cc	2.F	2.F	2dd	2dd	2cc	2c
4ff	2r	4ff	4f	.	.	.	4ff	.	.	.	.	.	.	.
4dd	.	4dd	4d	8f	.	.	4dd	.	.	.	4r	4r	4r	4r
.	.	.	.	8e-	.	.	.	.	.	.	.	.	.	.
=37	=37	=37	=37	=37	=37	=37	=37	=37	=37	=37	=37	=37	=37	=37
4b	4GG	4b	4B	4d	4G	4G	4b	2.b	2.G	2.G	4ee	4ee	4g	4g
8gg	8GG	8gg	8g	4B	4G	4G	8gg	.	.	.	4ee	4ee	4dd	4g
8aa-	8GG	8aa-	8a-	.	.	.	8aa-	.	.	.	.	.	.	.
8gg	4GG	8gg	8g	4B	4G	4G	8gg	.	.	.	4ee	4ee	4dd	4g
8ff	.	8ff	8f	.	.	.	8ff	.	.	.	.	.	.	.
=38	=38	=38	=38	=38	=38	=38	=38	=38	=38	=38	=38	=38	=38	=38
4ee-	4C	4ee-	4e-	4c	4c	4c	4ee-	4cc	4c	4c	4ee	4cc	4cc	4c
4cc	2r	4cc	4c	2r	2r	2r	4cc	2r	2r	2r	2r	2r	2r	2r
4r	.	4g 4G	4r	.	.	.	4r	.	.	.	.	.	.	.
=39	=39	=39	=39	=39	=39	=39	=39	=39	=39	=39	=39	=39	=39	=39
4r	4r	4G 4g	4r	4r	4r	4r	4r	4cc	4r	4r	4r	4r	4r	4r
4ccc	4C	4r	4c 4e	4B-	4B-	4B-	4e	4cc	4B-	4B-	4ee	4ee	4ee	4cc
4ccc	4C	4cc	4c 4e	4B-	4B-	4B-	4e	4r	4B-	4B-	4ee	4ee	4ee	4cc
=40	=40	=40	=40	=40	=40	=40	=40	=40	=40	=40	=40	=40	=40	=40
4r	4r	4cc	4r	4r	4r	4r	4r	4ff	4r	4r	4r	4r	4r	4r
4ccc	4C	4r	4f 4c	4A-	4A-	4A-	4cc	4ff	4A-	4A-	4dd	4dd	4ff	4cc
4ccc	4C	4ff	4f 4c	4A-	4A-	4A-	4cc	4r	4A-	4A-	4dd	4dd	4ff	4cc
=41	=41	=41	=41	=41	=41	=41	=41	=41	=41	=41	=41	=41	=41	=41
4r	4r	4ff	4r	4r	4r	4r	4r	4r	4r	4r	4r	4r	4r	4r
4fff	4GG	4bb	4b 4G 4f	4G	4G	4G	4dd	4bb	4G	4G	4ee	4ee	4dd	4g
4fff	4GG	4ddd	4b 4G 4f	4G	4G	4G	4dd	4bb	4G	4G	4ee	4ee	4dd	4g
=42	=42	=42	=42	=42	=42	=42	=42	=42	=42	=42	=42	=42	=42	=42
4fff	4GG	4fff	4G 4b 4f	4G	4G	4G	4dd	4bb	4G	4G	4ee	4ee	4dd	4g
2r	2r	2r	2r	2r	2r	2r	2r	2r	2r	2r	2r	2r	2r	2r
=43	=43	=43	=43	=43	=43	=43	=43	=43	=43	=43	=43	=43	=43	=43
2.r	2.r	2.r	2.r	2.r	2.r	2.r	2.r	2.r	2.r	2.r	2.r	2.r	2.r	2.r
=44	=44	=44	=44	=44	=44	=44	=44	=44	=44	=44	=44	=44	=44	=44
2.r	2.r	2r	2.r	2.r	2.r	2.r	2.r	2.r	2.r	2.r	2.r	2.r	2.r	2.r
.	.	4A-	.	.	.	.	.	.	.	.	.	.	.	.
=45	=45	=45	=45	=45	=45	=45	=45	=45	=45	=45	=45	=45	=45	=45
2.r	2.r	4A-	[2.d-	2.A-	[2.FF	[2.FF	2.r	2.r	2.r	2.r	2.r	2.r	2.r	2.r
.	.	4d-	.	.	.	.	.	.	.	.	.	.	.	.
.	.	4f	.	.	.	.	.	.	.	.	.	.	.	.
=46	=46	=46	=46	=46	=46	=46	=46	=46	=46	=46	=46	=46	=46	=46
2.r	2.r	2a-	2d-]	4D-	2FF]	2FF]	2.r	2.r	2.r	2.r	2.r	2.r	2.r	2.r
.	.	.	.	4f	.	.	.	.	.	.	.	.	.	.
.	.	4f#	4c	4e-	4AA-	4AA-	.	.	.	.	.	.	.	.
=47	=47	=47	=47	=47	=47	=47	=47	=47	=47	=47	=47	=47	=47	=47
2.r	2.r	4g	4e-	4c	2.GG	2.GG	2.r	2.r	2.r	2.r	2.r	2.r	2.r	2.r
.	.	4e-	4d	4G	.	.	.	.	.	.	.	.	.	.
.	.	4d	4B	4F	.	.	.	.	.	.	.	.	.	.
=48	=48	=48	=48	=48	=48	=48	=48	=48	=48	=48	=48	=48	=48	=48
2cc	4C	4c	4c	4E-	8CC	4C	2ee-	2.g	4CC	4CC	2.cc	2.e	2.cc	2.c
.	.	.	.	.	8C	.	.	.	.	.	.	.	.	.
.	8C	4r	4r	4r	8CC	4C	.	.	4C	4C	.	.	.	.
.	8C	.	.	.	8C	.	.	.	.	.	.	.	.	.
4ee-	4C	4ee-	4g	4cc	8CC	4C	4cc	.	4C	4C	.	.	.	.
.	.	.	.	.	8C	.	.	.	.	.	.	.	.	.
=49	=49	=49	=49	=49	=49	=49	=49	=49	=49	=49	=49	=49	=49	=49
4dd	4C	4dd	4f	2.b	8CC	4C	2.b	2.f	4CC	4CC	2.dd	2.e	2.dd	2.g
.	.	.	.	.	8C	.	.	.	.	.	.	.	.	.
8dd	4C	8dd	8f	.	8CC	4C	.	.	4C	4C	.	.	.	.
8cc	.	8cc	8e-	.	8C	.	.	.	.	.	.	.	.	.
8dd	4C	8dd	8f	.	8CC	4C	.	.	4C	4C	.	.	.	.
8b	.	8b	8d	.	8C	.	.	.	.	.	.	.	.	.
=50	=50	=50	=50	=50	=50	=50	=50	=50	=50	=50	=50	=50	=50	=50
4cc	4C	4cc	4e-	2.cc	8CC	4C	2cc	2e-	4CC	4CC	2.cc	2.e	2.cc	2.c
.	.	.	.	.	8C	.	.	.	.	.	.	.	.	.
4r	8C	4r	4r	.	8CC	4C	.	.	4C	4C	.	.	.	.
.	8C	.	.	.	8C	.	.	.	.	.	.	.	.	.
4gg	4C	4gg	4ee-	.	8CC	4C	4gg	4ee-	4C	4C	.	.	.	.
.	.	.	.	.	8C	.	.	.	.	.	.	.	.	.
=51	=51	=51	=51	=51	=51	=51	=51	=51	=51	=51	=51	=51	=51	=51
4ff	4C	4ff	4dd	2.b	8CC	4C	2.ff	2.b	4CC	4CC	2.dd	2.e	2.dd	2.g
.	.	.	.	.	8C	.	.	.	.	.	.	.	.	.
8ff	4C	8ff	8dd	.	8CC	4C	.	.	4C	4C	.	.	.	.
8ee-	.	8ee-	8cc	.	8C	.	.	.	.	.	.	.	.	.
8ff	4C	8ff	8dd	.	8CC	4C	.	.	4C	4C	.	.	.	.
8dd	.	8dd	8b	.	8C	.	.	.	.	.	.	.	.	.
=52	=52	=52	=52	=52	=52	=52	=52	=52	=52	=52	=52	=52	=52	=52
4ee-	4C	4ee-	4cc	2.cc	8CC	4C	2ee-	[2.cc	4CC	4CC	2.cc	2.e	2.cc	2.c
.	.	.	.	.	8C	.	.	.	.	.	.	.	.	.
4r	4C	4r	4r	.	8CC	4C	.	.	4C	4C	.	.	.	.
.	.	.	.	.	8C	.	.	.	.	.	.	.	.	.
4gg	4C	4gg	4g	.	8CC	4C	4gg	.	4C	4C	.	.	.	.
.	.	.	.	.	8C	.	.	.	.	.	.	.	.	.
=53	=53	=53	=53	=53	=53	=53	=53	=53	=53	=53	=53	=53	=53	=53
4ccc	4C	4ccc	4cc	4e-	4EE-	4E-	2.gg	2.cc]	4EE-	4EE-	2.ee	2.cc	4cc	4c
8ccc	8C	8ccc	8cc	4e-	4E-	4E-	.	.	4E-	4E-	.	.	4cc	4c
8bb	8C	8bb	8b	.	.	.	.	.	.	.	.	.	.	.
4ccc	4C	4ccc	4cc	4e-	4E-	4E-	.	.	4E-	4E-	.	.	4cc	4c
=54	=54	=54	=54	=54	=54	=54	=54	=54	=54	=54	=54	=54	=54	=54
4aa-	4C	4aa-	4a-	4f	4F	4F	4aa-	4cc	4F	4F	4dd	4dd	4cc	4c
2r	2r	2r	2r	2r	2r	2r	2r	2r	2r	2r	2r	2r	2r	2r
=55	=55	=55	=55	=55	=55	=55	=55	=55	=55	=55	=55	=55	=55	=55
2.bb	4GG	4b 4d	4G 4f	4g	4GG	4GG	2.dd	2.ff	2.G	2.G	2.ee	2.ee	4dd	4g
.	8GG	4b 4d	4G 4f	4g	4GG	4GG	.	.	.	.	.	.	4dd	4g
.	8GG	.	.	.	.	.	.	.	.	.	.	.	.	.
.	4GG	4d 4b	4f 4G	4g	4GG	4GG	.	.	.	.	.	.	4dd	4g
=56	=56	=56	=56	=56	=56	=56	=56	=56	=56	=56	=56	=56	=56	=56
4ccc	4C	4e- 4cc 4G	4e- 4G	4c	4C	4C	4cc	4ee-	4C	4C	4cc	4cc	4cc	4c
4r	4r	4r	4r	4r	4r	4r	4r	4r	4r	4r	4r	4r	4r	4r
4r	4r	4r	4r	4r	8c	4r	4r	4r	4r	4r	4r	4r	4r	4r
.	.	.	.	.	8B	.	.	.	.	.	.	.	.	.
=57	=57	=57	=57	=57	=57	=57	=57	=57	=57	=57	=57	=57	=57	=57
2.r	2.r	4g	4G 4e	4c	8c	4C	2.r	2.r	2.r	2.r	2.r	2.r	2.r	2.r
.	.	.	.	.	8G	.	.	.	.	.	.	.	.	.
.	.	4r	4r	4r	8E	4r	.	.	.	.	.	.	.	.
.	.	.	.	.	8C	.	.	.	.	.	.	.	.	.
.	.	4a	4f 4A	4c	8F	4C	.	.	.	.	.	.	.	.
.	.	.	.	.	8A	.	.	.	.	.	.	.	.	.
=58	=58	=58	=58	=58	=58	=58	=58	=58	=58	=58	=58	=58	=58	=58
2.r	2.r	4g	4G 4e	4c	8G	4C	2.r	2.r	2.r	2.r	2.r	2.r	2.r	2.r
.	.	.	.	.	8E	.	.	.	.	.	.	.	.	.
.	.	4r	4r	4r	8C	4r	.	.	.	.	.	.	.	.
.	.	.	.	.	8GG	.	.	.	.	.	.	.	.	.
.	.	4cc 4e	4g	4c	8EE	4C	.	.	.	.	.	.	.	.
.	.	.	.	.	8G	.	.	.	.	.	.	.	.	.
=59	=59	=59	=59	=59	=59	=59	=59	=59	=59	=59	=59	=59	=59	=59
2.r	2.r	4a 4f	4a 4f	4F	8FF	4F	2.r	2.r	2.r	2.r	2.r	2.r	2.r	2.r
.	.	.	.	.	8A	.	.	.	.	.	.	.	.	.
.	.	4r	4r	4r	8G	4r	.	.	.	.	.	.	.	.
.	.	.	.	.	8B	.	.	.	.	.	.	.	.	.
.	.	4d 4b	4f 4G	4G	8d	4G	.	.	.	.	.	.	.	.
.	.	.	.	.	8f	.	.	.	.	.	.	.	.	.
=60	=60	=60	=60	=60	=60	=60	=60	=60	=60	=60	=60	=60	=60	=60
2.r	2.r	4e 4cc	4e 4G	4c	8e	4C	2.r	2.r	2.r	2.r	2.r	2.r	2.r	2.r
.	.	.	.	.	8c	.	.	.	.	.	.	.	.	.
.	.	4r	4r	4r	8B	4r	.	.	.	.	.	.	.	.
.	.	.	.	.	8c	.	.	.	.	.	.	.	.	.
.	.	4ee 4f#	4A 4f#	4c	8e	4c	.	.	.	.	.	.	.	.
.	.	.	.	.	8f#	.	.	.	.	.	.	.	.	.
=61	=61	=61	=61	=61	=61	=61	=61	=61	=61	=61	=61	=61	=61	=61
2.r	2.r	4g 4dd	4g 4B	4B	8g	4B	2.r	2.r	2.r	2.r	2.r	2.r	2.r	2.r
.	.	.	.	.	8f#	.	.	.	.	.	.	.	.	.
.	.	4r	4r	4r	8g	4r	.	.	.	.	.	.	.	.
.	.	.	.	.	8GG	.	.	.	.	.	.	.	.	.
.	.	4ee 4f#	4A 4f#	4c	8e	4c	.	.	.	.	.	.	.	.
.	.	.	.	.	8f#	.	.	.	.	.	.	.	.	.
=62	=62	=62	=62	=62	=62	=62	=62	=62	=62	=62	=62	=62	=62	=62
2.r	2.r	4dd 4g	4g 4B	4B	8g	4B	2.r	2.r	2.r	2.r	2.r	2.r	2.r	2.r
.	.	.	.	.	8f#	.	.	.	.	.	.	.	.	.
.	.	4r	4r	4r	8g	4r	.	.	.	.	.	.	.	.
.	.	.	.	.	8GG	.	.	.	.	.	.	.	.	.
.	.	4dd 4gg	4g	4B	8g	4BB	.	.	.	.	.	.	.	.
.	.	.	.	.	8B	.	.	.	.	.	.	.	.	.
=63	=63	=63	=63	=63	=63	=63	=63	=63	=63	=63	=63	=63	=63	=63
2.r	2.r	4ee 4cc	4g	4c	8A	4C	2.r	2.r	2.r	2.r	2.r	2.r	2.r	2.r
.	.	.	.	.	8e	.	.	.	.	.	.	.	.	.
.	.	4r	4r	4r	8d	4r	.	.	.	.	.	.	.	.
.	.	.	.	.	8c	.	.	.	.	.	.	.	.	.
.	.	4a 4f#	4A 4f#	4d	8B	4D	.	.	.	.	.	.	.	.
.	.	.	.	.	8A	.	.	.	.	.	.	.	.	.
=64	=64	=64	=64	=64	=64	=64	=64	=64	=64	=64	=64	=64	=64	=64
2r	2r	4b 4g	4B 4g	4G	4G	4G	2r	2r	2r	2r	2r	2r	2r	2r
.	.	4r	4r	4r	4GG	4r	.	.	.	.	.	.	.	.
4r	4r	4r	4r	4r	8GG	4r	4r	4r	4r	4r	4r	4r	4r	4r
.	.	.	.	.	8BB	.	.	.	.	.	.	.	.	.
=65	=65	=65	=65	=65	=65	=65	=65	=65	=65	=65	=65	=65	=65	=65
2.r	2.r	4d 4b	4G 4f	4G	8D	4G	2.r	2.r	2.r	2.r	2.r	2.r	2.r	2.r
.	.	.	.	.	8F	.	.	.	.	.	.	.	.	.
.	.	4r	4r	4r	8G	4r	.	.	.	.	.	.	.	.
.	.	.	.	.	8B	.	.	.	.	.	.	.	.	.
.	.	4b 4d	4G 4f	4G	8d	4G	.	.	.	.	.	.	.	.
.	.	.	.	.	8B	.	.	.	.	.	.	.	.	.
=66	=66	=66	=66	=66	=66	=66	=66	=66	=66	=66	=66	=66	=66	=66
2.r	2.r	4e 4cc	4G 4e	4c	8c	4C	2.r	2.r	2.r	2.r	2.r	2.r	2.r	2.r
.	.	.	.	.	8G	.	.	.	.	.	.	.	.	.
.	.	2r	2r	2r	8E	2r	.	.	.	.	.	.	.	.
.	.	.	.	.	8C	.	.	.	.	.	.	.	.	.
.	.	.	.	.	8CC	.	.	.	.	.	.	.	.	.
.	.	.	.	.	8C	.	.	.	.	.	.	.	.	.
=67	=67	=67	=67	=67	=67	=67	=67	=67	=67	=67	=67	=67	=67	=67
2.r	2.r	4ee 4b-	4b- 4g	4c	8E	4C	2.r	2.r	2.r	2.r	2.r	2.r	2.r	2.r
.	.	.	.	.	8G	.	.	.	.	.	.	.	.	.
.	.	4r	4r	4r	8B-	4r	.	.	.	.	.	.	.	.
.	.	.	.	.	8c	.	.	.	.	.	.	.	.	.
.	.	4ee 4b-	4b- 4g	4c	8e	4C	.	.	.	.	.	.	.	.
.	.	.	.	.	8g	.	.	.	.	.	.	.	.	.
=68	=68	=68	=68	=68	=68	=68	=68	=68	=68	=68	=68	=68	=68	=68
2.r	2.r	4a 4ff	4a 4f	4c	8f	4F	2.r	2.r	2.r	2.r	2.r	2.r	2.r	2.r
.	.	.	.	.	8e	.	.	.	.	.	.	.	.	.
.	.	4r	4r	4r	8f	4r	.	.	.	.	.	.	.	.
.	.	.	.	.	8A	.	.	.	.	.	.	.	.	.
.	.	4cc# 4e	4g 4A	4e	8B	4E	.	.	.	.	.	.	.	.
.	.	.	.	.	8c#	.	.	.	.	.	.	.	.	.
=69	=69	=69	=69	=69	=69	=69	=69	=69	=69	=69	=69	=69	=69	=69
2.r	2.r	4d 4dd	4f 4A	4f	8d	4F	2.r	2.r	2.r	2.r	2.r	2.r	2.r	2.r
.	.	.	.	.	8c#	.	.	.	.	.	.	.	.	.
.	.	4r	4r	4r	8d	4r	.	.	.	.	.	.	.	.
.	.	.	.	.	8A	.	.	.	.	.	.	.	.	.
.	.	4cc# 4e	4g 4A	4e	8B	4E	.	.	.	.	.	.	.	.
.	.	.	.	.	8c#	.	.	.	.	.	.	.	.	.
=70	=70	=70	=70	=70	=70	=70	=70	=70	=70	=70	=70	=70	=70	=70
2.r	2.r	4dd 4d	4f 4A	4f	8d	4F	2.r	2.r	2.r	2.r	2.r	2.r	2.r	2.r
.	.	.	.	.	8e	.	.	.	.	.	.	.	.	.
.	.	2r	2r	2r	8f	2r	.	.	.	.	.	.	.	.
.	.	.	.	.	8f#	.	.	.	.	.	.	.	.	.
.	.	.	.	.	8g	.	.	.	.	.	.	.	.	.
.	.	.	.	.	8g#	.	.	.	.	.	.	.	.	.
=71	=71	=71	=71	=71	=71	=71	=71	=71	=71	=71	=71	=71	=71	=71
2.r	2.r	4dd	4a	4f	8a	4F	2.r	2.r	2.r	2.r	2.r	2.r	2.r	2.r
.	.	.	.	.	8A	.	.	.	.	.	.	.	.	.
.	.	4r	4r	4r	8g	4r	.	.	.	.	.	.	.	.
.	.	.	.	.	8f	.	.	.	.	.	.	.	.	.
.	.	4dd	4f	4f	8e	4F	.	.	.	.	.	.	.	.
.	.	.	.	.	8d	.	.	.	.	.	.	.	.	.
=72	=72	=72	=72	=72	=72	=72	=72	=72	=72	=72	=72	=72	=72	=72
2.r	2.r	4cc	4e	4g	4c	4G	2.r	2.r	2.r	2.r	2.r	2.r	2.r	2.r
.	.	4b	4d	2r	4B	2r	.	.	.	.	.	.	.	.
.	.	4r	4r	.	8c	.	.	.	.	.	.	.	.	.
.	.	.	.	.	8B	.	.	.	.	.	.	.	.	.
=73	=73	=73	=73	=73	=73	=73	=73	=73	=73	=73	=73	=73	=73	=73
2.r	2.r	4g	4e 4G	4c	8c	4C	2.r	2.r	2.r	2.r	2.r	2.r	2.r	2.r
.	.	.	.	.	8G	.	.	.	.	.	.	.	.	.
.	.	4r	4r	4r	8E	4r	.	.	.	.	.	.	.	.
.	.	.	.	.	8C	.	.	.	.	.	.	.	.	.
.	.	4a	4f 4A	4c	8F	4C	.	.	.	.	.	.	.	.
.	.	.	.	.	8A	.	.	.	.	.	.	.	.	.
=74	=74	=74	=74	=74	=74	=74	=74	=74	=74	=74	=74	=74	=74	=74
2.r	2.r	4g	4e 4G	4c	8G	4C	2.r	2.r	2.r	2.r	2.r	2.r	2.r	2.r
.	.	.	.	.	8E	.	.	.	.	.	.	.	.	.
.	.	4r	4r	4r	8C	4r	.	.	.	.	.	.	.	.
.	.	.	.	.	8GG	.	.	.	.	.	.	.	.	.
.	.	4cc 4g	4g	4e	8EE	4E	.	.	.	.	.	.	.	.
.	.	.	.	.	8G	.	.	.	.	.	.	.	.	.
=75	=75	=75	=75	=75	=75	=75	=75	=75	=75	=75	=75	=75	=75	=75
2.r	2.r	4a 4f	4c	4f	8FF	4F	2.r	2.r	2.r	2.r	2.r	2.r	2.r	2.r
.	.	.	.	.	8A	.	.	.	.	.	.	.	.	.
.	.	4r	4r	4r	8G	4r	.	.	.	.	.	.	.	.
.	.	.	.	.	8B	.	.	.	.	.	.	.	.	.
.	.	4d 4b	4G 4f	4g	8d	4G	.	.	.	.	.	.	.	.
.	.	.	.	.	8f	.	.	.	.	.	.	.	.	.
=76	=76	=76	=76	=76	=76	=76	=76	=76	=76	=76	=76	=76	=76	=76
2.r	2.r	4cc 4e	4G 4e	4c	8e	4C	2.r	2.r	2.r	2.r	2.r	2.r	2.r	2.r
.	.	.	.	.	8c	.	.	.	.	.	.	.	.	.
.	.	4r	4r	4r	8B	4r	.	.	.	.	.	.	.	.
.	.	.	.	.	8c	.	.	.	.	.	.	.	.	.
.	.	8ff	4f 4A	4c	4r	4C	.	.	.	.	.	.	.	.
.	.	8aa	.	.	.	.	.	.	.	.	.	.	.	.
=77	=77	=77	=77	=77	=77	=77	=77	=77	=77	=77	=77	=77	=77	=77
2.r	2.r	8gg	4G 4e	4c	2.r	4C	2.r	2.r	2.r	2.r	2.r	2.r	2.r	2.r
.	.	8ee	.	.	.	.	.	.	.	.	.	.	.	.
.	.	8cc	4r	4r	.	4r	.	.	.	.	.	.	.	.
.	.	8ccc	.	.	.	.	.	.	.	.	.	.	.	.
.	.	8aa	4f 4A	4c	.	4C	.	.	.	.	.	.	.	.
.	.	8ff	.	.	.	.	.	.	.	.	.	.	.	.
=78	=78	=78	=78	=78	=78	=78	=78	=78	=78	=78	=78	=78	=78	=78
2.r	2.r	8gg	4G 4e	4c	4.c	4C	2.r	2.r	2.r	2.r	2.r	2.r	2.r	2.r
.	.	8ee	.	.	.	.	.	.	.	.	.	.	.	.
.	.	4cc	2r	2r	.	2r	.	.	.	.	.	.	.	.
.	.	.	.	.	8d	.	.	.	.	.	.	.	.	.
.	.	4r	.	.	8e	.	.	.	.	.	.	.	.	.
.	.	.	.	.	8f	.	.	.	.	.	.	.	.	.
=79	=79	=79	=79	=79	=79	=79	=79	=79	=79	=79	=79	=79	=79	=79
2.r	2.r	4g	4e	4c	8g	4C	2.r	2.r	2.r	2.r	2.r	2.r	2.r	2.r
.	.	.	.	.	8e	.	.	.	.	.	.	.	.	.
.	.	4r	4r	4r	8c	4r	.	.	.	.	.	.	.	.
.	.	.	.	.	8cc	.	.	.	.	.	.	.	.	.
.	.	4a	4f	4c	8a	4C	.	.	.	.	.	.	.	.
.	.	.	.	.	8f	.	.	.	.	.	.	.	.	.
=80	=80	=80	=80	=80	=80	=80	=80	=80	=80	=80	=80	=80	=80	=80
2.r	2.r	4g	4e	4c	8g	4C	2.r	2.r	2.r	2.r	2.r	2.r	2.r	2.r
.	.	.	.	.	8e	.	.	.	.	.	.	.	.	.
.	.	4r	4r	4r	8c	4r	.	.	.	.	.	.	.	.
.	.	.	.	.	8cc	.	.	.	.	.	.	.	.	.
.	.	4a	4f	4c	8a	4C	.	.	.	.	.	.	.	.
.	.	.	.	.	8f	.	.	.	.	.	.	.	.	.
=81	=81	=81	=81	=81	=81	=81	=81	=81	=81	=81	=81	=81	=81	=81
2.r	2.r	4g	4e	4c	8g	4C	2.r	2.r	2.r	2.r	2.r	2.r	2.r	2.r
.	.	.	.	.	8e	.	.	.	.	.	.	.	.	.
.	.	4r	4r	4r	8c	4r	.	.	.	.	.	.	.	.
.	.	.	.	.	8cc	.	.	.	.	.	.	.	.	.
.	.	4a	4f	4c	8a	4C	.	.	.	.	.	.	.	.
.	.	.	.	.	8f	.	.	.	.	.	.	.	.	.
=82	=82	=82	=82	=82	=82	=82	=82	=82	=82	=82	=82	=82	=82	=82
2.r	2.r	4g	4e	4c	8g	4C	2.r	2.r	2.r	2.r	2.r	2.r	2.r	2.r
.	.	.	.	.	8a	.	.	.	.	.	.	.	.	.
.	.	4r	4r	4r	8b	4r	.	.	.	.	.	.	.	.
.	.	.	.	.	8cc	.	.	.	.	.	.	.	.	.
.	.	4cc	4g	4e	8b	4E	.	.	.	.	.	.	.	.
.	.	.	.	.	8cc	.	.	.	.	.	.	.	.	.
=83	=83	=83	=83	=83	=83	=83	=83	=83	=83	=83	=83	=83	=83	=83
2.r	2.r	4a	4a	4f	4a	4F	2.r	2.r	2.r	2.r	2.r	2.r	2.r	2.r
.	.	4r	4r	4r	8g	4r	.	.	.	.	.	.	.	.
.	.	.	.	.	8f	.	.	.	.	.	.	.	.	.
.	.	4d 4b	4f 4G	4g	8e	4G	.	.	.	.	.	.	.	.
.	.	.	.	.	8d	.	.	.	.	.	.	.	.	.
=84	=84	=84	=84	=84	=84	=84	=84	=84	=84	=84	=84	=84	=84	=84
2.r	2.r	4e 4cc	4e 4G	4c	4c	4C	2.r	2.r	2.r	2.r	2.r	2.r	2.r	2.r
.	.	2r	2r	2r	2r	2r	.	.	.	.	.	.	.	.
==	==	==	==	==	==	==	==	==	==	==	==	==	==	==
*-	*-	*-	*-	*-	*-	*-	*-	*-	*-	*-	*-	*-	*-	*-
!!!RWG1: This file contains only pitch and duration data.
!!!RWG2: Transposing instruments are not transposed.
!!!RWG3: Spines may have incompatible meters.
!!!RWG4: Durations of rests and tied notes may be interpreted.
!!!RWG: Key is interpreted using the Humdrum key tool.
!!!AFT: stage1
!!!END: 1997/04/15
!!format changes:
!!content changes:
!!public access: complete
!!!KEY: 1956939959
!!!EMD: Converted from MuseData to Humdrum Dec 16, 2000, by Andreas Kornstaedt using muse2kern.
